build/redact/LineSpacingOutline.svg

<svg xmlns="http://www.w3.org/2000/svg" fill="none" viewBox="0 0 24 24" focusable="false"><path d="M0 0H24V24H0z"/><path fill="#74767B" fill-rule="evenodd" d="M6.64288 5.90606C6.82638 5.90361 7.00237 5.97885 7.1274 6.11319L9.19739 8.33754C9.44195 8.60034 9.42717 9.01163 9.16438 9.25619C8.90158 9.50074 8.49029 9.48596 8.24573 9.22317L7.3288 8.23787L7.3288 10.75C7.3288 11.109 7.03778 11.4 6.6788 11.4C6.31981 11.4 6.0288 11.109 6.0288 10.75L6.0288 8.24483L5.17737 9.21022C4.93992 9.47946 4.52917 9.50522 4.25994 9.26777C3.9907 9.03032 3.96494 8.61957 4.20239 8.35034L6.16407 6.12606C6.28546 5.98843 6.45938 5.90852 6.64288 5.90606ZM10.9907 6.75004C10.9907 6.39106 11.2817 6.10004 11.6407 6.10004L19.3499 6.10004C19.7089 6.10004 19.9999 6.39106 19.9999 6.75004C19.9999 7.10903 19.7089 7.40004 19.3499 7.40004L11.6407 7.40004C11.2817 7.40004 10.9907 7.10903 10.9907 6.75004ZM10.9907 12.05C10.9907 11.6911 11.2817 11.4 11.6407 11.4L19.3499 11.4C19.7089 11.4 19.9999 11.6911 19.9999 12.05C19.9999 12.409 19.7089 12.7 19.3499 12.7L11.6407 12.7C11.2817 12.7 10.9907 12.409 10.9907 12.05ZM7.3288 15.7996L7.3288 13.35C7.3288 12.9911 7.03778 12.7 6.6788 12.7C6.31981 12.7 6.0288 12.9911 6.0288 13.35L6.0288 15.807L5.11167 14.8215C4.86712 14.5587 4.45582 14.5439 4.19303 14.7885C3.93023 15.033 3.91545 15.4443 4.16001 15.7071L6.23001 17.9315C6.35503 18.0658 6.53102 18.141 6.71452 18.1386C6.89803 18.1361 7.07194 18.0562 7.19333 17.9186L9.15502 15.6943C9.39247 15.4251 9.3667 15.0143 9.09747 14.7769C8.82823 14.5394 8.41748 14.5652 8.18003 14.8344L7.3288 15.7996ZM11.6407 16.7C11.2817 16.7 10.9907 16.9911 10.9907 17.35C10.9907 17.709 11.2817 18 11.6407 18L19.3499 18C19.7089 18 19.9999 17.709 19.9999 17.35C19.9999 16.9911 19.7089 16.7 19.3499 16.7L11.6407 16.7Z"/></svg>

<svg xmlns="http://www.w3.org/2000/svg" fill="none" viewBox="0 0 24 24" focusable="false"><path fill="#74767B" fill-rule="evenodd" d="M6.64 5.9c.18 0 .36.07.48.21l2.07 2.22c.25.27.23.68-.03.92a.65.65 0 0 1-.92-.03l-.92-.99v2.52c0 .35-.29.65-.65.65s-.65-.3-.65-.65V8.24l-.85.97c-.24.26-.65.29-.91.05a.64.64 0 0 1-.06-.91l1.96-2.23c.12-.14.29-.22.48-.22m4.35.85c0-.36.29-.65.65-.65h7.71c.35 0 .65.29.65.65 0 .35-.3.65-.65.65h-7.71c-.36 0-.65-.3-.65-.65m0 5.3c0-.36.29-.65.65-.65h7.71c.35 0 .65.29.65.65 0 .35-.3.65-.65.65h-7.71c-.36 0-.65-.3-.65-.65m-3.67 3.74v-2.44c0-.36-.29-.65-.65-.65s-.65.29-.65.65v2.45l-.91-.98a.65.65 0 0 0-.92-.04.66.66 0 0 0-.04.92l2.07 2.23c.13.13.31.21.49.2.18 0 .36-.08.48-.22l1.96-2.22a.65.65 0 0 0-.06-.92.65.65 0 0 0-.92.06zm4.32.91c-.36 0-.65.29-.65.65 0 .35.29.65.65.65h7.71c.35 0 .65-.3.65-.65 0-.36-.3-.65-.65-.65z"/></svg>
